dist/assets/img/favicon/favicon.svg

<svg width="11" height="19" viewBox="0 0 11 19" fill="none" xmlns="http://www.w3.org/2000/svg">
<path d="M10.3477 0C10.5742 0.320312 10.6875 0.8125 10.6875 1.47656C10.6875 2.13281 10.6641 2.66797 10.6172 3.08203C10.5781 3.48828 10.5156 3.88281 10.4297 4.26562C10.2422 5.125 9.98047 5.77344 9.64453 6.21094C9.35547 4.70312 8.98047 3.625 8.51953 2.97656C8.03516 2.32031 7.40234 1.99219 6.62109 1.99219C5.84766 1.99219 5.24219 2.14063 4.80469 2.4375C4.36719 2.73437 4.03125 3.125 3.79688 3.60938C3.40625 4.41406 3.21094 5.60156 3.21094 7.17188C3.21094 8.73438 3.38672 10.168 3.73828 11.4727C4.09766 12.7695 4.60547 13.8867 5.26172 14.8242C6.64453 16.8164 8.44531 17.8125 10.6641 17.8125C10.6328 18.1641 10.4492 18.4688 10.1133 18.7266C10.0117 18.8047 9.90234 18.8516 9.78516 18.8672C6.94922 18.8672 4.63672 17.8242 2.84766 15.7383C0.949219 13.5195 0 10.4961 0 6.66797C0 4.66797 0.585938 3.16406 1.75781 2.15625C2.79688 1.26562 4.21875 0.820312 6.02344 0.820312L7.98047 0.84375C8.90234 0.84375 9.55078 0.710938 9.92578 0.445312C10.082 0.328125 10.2227 0.179687 10.3477 0Z" fill="black"/>
</svg>

<svg width="11" height="19" fill="none" xmlns="http://www.w3.org/2000/svg"><path d="M10.348 0c.226.32.34.813.34 1.477 0 .656-.024 1.191-.07 1.605-.04.406-.102.8-.188 1.184-.188.859-.45 1.507-.785 1.945-.29-1.508-.665-2.586-1.125-3.234-.485-.657-1.118-.985-1.899-.985-.773 0-1.379.149-1.816.446a2.934 2.934 0 00-1.008 1.171c-.39.805-.586 1.993-.586 3.563 0 1.562.176 2.996.527 4.3.36 1.298.867 2.415 1.524 3.352 1.383 1.992 3.183 2.989 5.402 2.989-.031.351-.215.656-.55.914a.68.68 0 01-.329.14c-2.836 0-5.148-1.043-6.937-3.129C.949 13.52 0 10.496 0 6.668c0-2 .586-3.504 1.758-4.512C2.797 1.266 4.218.82 6.023.82L7.98.844c.922 0 1.57-.133 1.946-.399.156-.117.297-.265.422-.445z" fill="#000"/></svg>
